build/img/appstore.svg

<svg width="156" height="56" viewBox="0 0 156 56" fill="none" xmlns="http://www.w3.org/2000/svg">
<path d="M32.5817 25.5058C32.0859 26.3769 31.8191 27.359 31.8061 28.3606C31.8074 29.4872 32.1411 30.5886 32.7658 31.5273C33.3905 32.4661 34.2785 33.2007 35.3191 33.6396C34.9099 34.9649 34.2933 36.2174 33.4918 37.3506C32.4156 38.9561 31.2871 40.5246 29.496 40.5536C28.6442 40.5732 28.0692 40.3289 27.4701 40.0744C26.8451 39.8089 26.1938 39.5322 25.1747 39.5322C24.0939 39.5322 23.4135 39.8178 22.7573 40.0932C22.1902 40.3312 21.6412 40.5616 20.8674 40.5936C19.1617 40.6566 17.8581 38.8801 16.7427 37.2897C14.5133 34.0417 12.7774 28.1365 15.1047 24.1184C15.6419 23.1556 16.4201 22.3481 17.3634 21.7744C18.3067 21.2007 19.3829 20.8805 20.4872 20.8449C21.4547 20.8251 22.383 21.1969 23.1968 21.5229C23.8192 21.7722 24.3747 21.9947 24.8296 21.9947C25.2295 21.9947 25.7695 21.781 26.3988 21.5319C27.3901 21.1396 28.603 20.6595 29.8391 20.7889C30.7864 20.8184 31.7137 21.0679 32.5475 21.5173C33.3812 21.9668 34.0983 22.6039 34.642 23.3781C33.7862 23.9027 33.0775 24.6346 32.5817 25.5058Z" fill="white"/>
<path d="M29.8602 14.4641C29.9767 15.9812 29.4955 17.4838 28.519 18.6528C28.0514 19.2328 27.4578 19.6994 26.7832 20.0176C26.1085 20.3357 25.3702 20.497 24.624 20.4893C24.5763 19.7597 24.6734 19.028 24.9095 18.3359C25.1457 17.6437 25.5163 17.0048 26.0003 16.4556C26.99 15.3314 28.3682 14.6204 29.8602 14.4641Z" fill="white"/>
<path fill-rule="evenodd" clip-rule="evenodd" d="M55.9053 36.5674H50.2093L48.8414 40.5951H46.4288L51.824 25.6935H54.3306L59.7258 40.5951H57.272L55.9053 36.5674ZM50.7992 34.7088H55.3143L53.0885 28.172H53.0262L50.7992 34.7088Z" fill="white"/>
<path fill-rule="evenodd" clip-rule="evenodd" d="M71.3776 35.1634C71.3776 38.5396 69.5655 40.7088 66.8308 40.7088C66.1381 40.7449 65.4492 40.5858 64.8429 40.2496C64.2367 39.9134 63.7376 39.4138 63.4029 38.808H63.3511V44.1892H61.1148V29.7306H63.2795V31.5377H63.3206C63.6707 30.9347 64.1782 30.4377 64.7891 30.0995C65.4 29.7612 66.0914 29.5945 66.7897 29.617C69.5548 29.617 71.3776 31.7966 71.3776 35.1634ZM69.0789 35.1634C69.0789 32.9638 67.939 31.5177 66.1998 31.5177C64.4911 31.5177 63.3418 32.9943 63.3418 35.1634C63.3418 37.3525 64.4911 38.8185 66.1998 38.8185C67.939 38.8185 69.0789 37.383 69.0789 35.1634Z" fill="white"/>
<path fill-rule="evenodd" clip-rule="evenodd" d="M83.3689 35.1634C83.3689 38.5396 81.5568 40.7088 78.8222 40.7088C78.1295 40.7449 77.4406 40.5858 76.8343 40.2496C76.2281 39.9134 75.729 39.4138 75.3943 38.808H75.3425V44.1892H73.1062V29.7306H75.2708V31.5377H75.312C75.6621 30.9347 76.1696 30.4377 76.7805 30.0995C77.3913 29.7612 78.0827 29.5945 78.7811 29.617C81.5463 29.617 83.3689 31.7966 83.3689 35.1634ZM81.0703 35.1634C81.0703 32.9638 79.9304 31.5177 78.1912 31.5177C76.4825 31.5177 75.3331 32.9943 75.3331 35.1634C75.3331 37.3525 76.4825 38.8185 78.1912 38.8185C79.9304 38.8185 81.0703 37.383 81.0703 35.1634Z" fill="white"/>
<path d="M91.2943 36.4431C91.46 37.9209 92.8995 38.8911 94.8668 38.8911C96.7517 38.8911 98.1079 37.9208 98.1079 36.5884C98.1079 35.4317 97.2899 34.7392 95.3533 34.2646L93.4166 33.7993C90.6726 33.1384 89.3987 31.8587 89.3987 29.7821C89.3987 27.211 91.6456 25.445 94.8362 25.445C97.9938 25.445 100.159 27.211 100.231 29.7821H97.9739C97.8387 28.295 96.606 27.3974 94.8044 27.3974C93.0029 27.3974 91.7702 28.3056 91.7702 29.6275C91.7702 30.681 92.5575 31.3009 94.4836 31.7755L96.13 32.1786C99.196 32.9016 100.47 34.1298 100.47 36.3094C100.47 39.0973 98.243 40.8434 94.701 40.8434C91.387 40.8434 89.1495 39.1383 89.005 36.443L91.2943 36.4431Z" fill="white"/>
<path d="M105.296 27.1595V29.7306H107.368V31.4966H105.296V37.4861C105.296 38.4166 105.711 38.8502 106.622 38.8502C106.868 38.8459 107.113 38.8287 107.358 38.7986V40.554C106.948 40.6303 106.532 40.6649 106.115 40.6572C103.91 40.6572 103.049 39.831 103.049 37.7239V31.4966H101.465V29.7306H103.049V27.1595H105.296Z" fill="white"/>
<path fill-rule="evenodd" clip-rule="evenodd" d="M108.568 35.1634C108.568 31.7451 110.587 29.597 113.735 29.597C116.894 29.597 118.904 31.745 118.904 35.1634C118.904 38.5912 116.905 40.7299 113.735 40.7299C110.567 40.7299 108.568 38.5912 108.568 35.1634ZM116.625 35.1634C116.625 32.8185 115.547 31.4345 113.735 31.4345C111.923 31.4345 110.847 32.8291 110.847 35.1634C110.847 37.5177 111.923 38.8912 113.735 38.8912C115.547 38.8912 116.625 37.5177 116.625 35.1634Z" fill="white"/>
<path d="M120.747 29.7306H122.88V31.5798H122.932C123.076 31.0023 123.416 30.4919 123.893 30.1344C124.37 29.777 124.956 29.5942 125.553 29.6169C125.81 29.616 126.067 29.644 126.319 29.7001V31.7861C125.994 31.6869 125.654 31.6414 125.314 31.6513C124.989 31.6382 124.665 31.6953 124.365 31.8188C124.064 31.9422 123.794 32.1291 123.572 32.3666C123.351 32.604 123.184 32.8865 123.082 33.1945C122.981 33.5025 122.947 33.8288 122.984 34.1509V40.5951H120.747L120.747 29.7306Z" fill="white"/>
<path fill-rule="evenodd" clip-rule="evenodd" d="M136.63 37.4041C136.329 39.3763 134.403 40.7298 131.938 40.7298C128.769 40.7298 126.802 38.6123 126.802 35.215C126.802 31.8072 128.78 29.597 131.844 29.597C134.859 29.597 136.754 31.6619 136.754 34.956V35.7201H129.059V35.8548C129.024 36.2547 129.074 36.6575 129.207 37.0365C129.339 37.4155 129.551 37.762 129.828 38.0531C130.106 38.3442 130.442 38.5731 130.814 38.7246C131.187 38.8762 131.588 38.9469 131.99 38.9322C132.519 38.9816 133.049 38.8595 133.502 38.5842C133.956 38.3088 134.308 37.895 134.506 37.4041L136.63 37.4041ZM129.07 34.1615H134.517C134.537 33.802 134.482 33.4422 134.356 33.1047C134.23 32.7673 134.036 32.4594 133.785 32.2005C133.534 31.9416 133.232 31.7372 132.898 31.6001C132.564 31.4631 132.205 31.3963 131.844 31.4041C131.48 31.4019 131.119 31.4717 130.782 31.6094C130.445 31.7471 130.139 31.9499 129.881 32.2063C129.623 32.4627 129.419 32.7674 129.279 33.103C129.14 33.4386 129.069 33.7983 129.07 34.1615Z" fill="white"/>
<path d="M50.1699 15.5039H49.2098V16.476H50.2005C51.2005 16.476 51.7728 16.9131 51.7728 17.6227C51.7728 18.3223 51.1653 18.8186 50.2346 18.8186C49.3038 18.8186 48.6728 18.3767 48.6081 17.6918H47.5376C47.5698 18.0097 47.6659 18.3178 47.8201 18.5979C47.9743 18.8779 48.1835 19.1242 48.4352 19.3219C48.6869 19.5196 48.9759 19.6648 49.285 19.7487C49.5942 19.8327 49.9171 19.8537 50.2346 19.8105C50.5513 19.8498 50.8728 19.8256 51.1801 19.7393C51.4874 19.6531 51.7744 19.5065 52.0241 19.3083C52.2739 19.11 52.4815 18.864 52.6347 18.5847C52.7878 18.3054 52.8836 17.9985 52.9163 17.6818C52.9336 17.2413 52.7753 16.8119 52.476 16.4874C52.1768 16.163 51.7609 15.9699 51.3192 15.9504V15.866C51.6918 15.7831 52.0245 15.5752 52.2619 15.2772C52.4993 14.9791 52.627 14.6089 52.6237 14.2283C52.6237 13.0921 51.6283 12.3029 50.2145 12.3029C49.9082 12.2632 49.5969 12.2868 49.3 12.3723C49.0032 12.4577 48.7272 12.6032 48.4892 12.7997C48.2512 12.9961 48.0563 13.2393 47.9166 13.5141C47.7769 13.7889 47.6955 14.0895 47.6774 14.397H48.7315C48.7506 14.2276 48.8035 14.0637 48.8872 13.915C48.9709 13.7663 49.0836 13.6359 49.2186 13.5313C49.3537 13.4268 49.5084 13.3503 49.6736 13.3064C49.8388 13.2624 50.0112 13.252 50.1805 13.2756C51.0254 13.2756 51.5237 13.7021 51.5237 14.3625C51.5165 14.5284 51.4749 14.6911 51.4016 14.8402C51.3282 14.9893 51.2247 15.1216 51.0975 15.2289C50.9703 15.3361 50.8222 15.4159 50.6626 15.4632C50.5029 15.5106 50.3352 15.5244 50.1699 15.5039Z" fill="white"/>
<path fill-rule="evenodd" clip-rule="evenodd" d="M56.148 16.4959C54.86 16.5756 54.1326 17.1363 54.1326 18.109C54.1335 18.337 54.1823 18.5624 54.2759 18.7705C54.3694 18.9786 54.5057 19.1648 54.6759 19.3172C54.8461 19.4695 55.0464 19.5846 55.2639 19.6551C55.4814 19.7255 55.7113 19.7497 55.9388 19.7261C56.2611 19.741 56.5816 19.6703 56.8675 19.5212C57.1535 19.3722 57.3947 19.1501 57.5664 18.8777H57.651V19.6371H58.6816V15.9451C58.6816 14.8037 57.9154 14.1293 56.5569 14.1293C55.3277 14.1293 54.451 14.7246 54.3417 15.6527H55.3771C55.4969 15.2707 55.9094 15.0521 56.5064 15.0521C57.2385 15.0521 57.6158 15.3744 57.6158 15.9451V16.4115L56.148 16.4959ZM57.6158 17.1955V17.6472C57.6042 17.8177 57.5583 17.9841 57.4809 18.1365C57.4036 18.2889 57.2962 18.4243 57.1653 18.5345C57.0344 18.6447 56.8826 18.7275 56.7189 18.778C56.5552 18.8285 56.383 18.8457 56.2126 18.8285C55.6308 18.8285 55.2078 18.5455 55.2078 18.0591C55.2078 17.5828 55.5462 17.3296 56.2925 17.2798L57.6158 17.1955Z" fill="white"/>
<path d="M61.5196 19.6371V15.1312L64.0181 15.1312V14.2336H60.4502V19.6371H61.5196Z" fill="white"/>
<path fill-rule="evenodd" clip-rule="evenodd" d="M68.2604 19.7261C69.6283 19.7261 70.4991 18.6498 70.4991 16.933C70.4991 15.2156 69.6283 14.1439 68.2498 14.1439C67.9029 14.1354 67.5604 14.2227 67.2601 14.3961C66.9598 14.5695 66.7135 14.8223 66.5482 15.1266H66.4683V14.2336H65.4388V21.4336H66.5082V18.8185H66.5928C66.7552 19.1125 66.9984 19.3541 67.2938 19.5149C67.5893 19.6757 67.9246 19.749 68.2604 19.7261ZM67.9513 15.1019C68.8574 15.1019 69.3991 15.7916 69.3991 16.933C69.3991 18.0791 68.8574 18.7687 67.9466 18.7687C67.0512 18.7687 66.4883 18.0638 66.4883 16.9377C66.4883 15.8062 67.0512 15.1019 67.9513 15.1019Z" fill="white"/>
<path d="M71.9234 20.6543V21.5724C72.0233 21.5871 72.2771 21.597 72.3664 21.597C73.4711 21.597 73.9835 21.1752 74.4465 19.8603L76.4666 14.2336H75.3325L73.9787 18.5255H73.8941L72.5356 14.2336H71.371L73.3324 19.657L73.2524 19.9201C73.211 20.1441 73.088 20.345 72.9071 20.4842C72.7262 20.6233 72.5002 20.691 72.2724 20.6742C72.1557 20.6756 72.0391 20.6689 71.9234 20.6543Z" fill="white"/>
<path d="M78.3645 18.1037H77.2998C77.3985 19.1953 78.3598 19.7361 79.5432 19.7361C80.8817 19.7361 81.7583 19.0565 81.7583 18.0293C81.7617 17.7323 81.6556 17.4445 81.4602 17.2204C81.2648 16.9963 80.9937 16.8515 80.6983 16.8135V16.7291C80.9464 16.6703 81.1667 16.5284 81.3225 16.327C81.4782 16.1256 81.5599 15.8771 81.5539 15.6229C81.5539 14.71 80.817 14.1293 79.529 14.1293C79.0362 14.0616 78.5363 14.1894 78.137 14.4854C77.7377 14.7813 77.4708 15.2218 77.3938 15.7119H78.4244C78.4937 15.2854 78.9309 15.0322 79.529 15.0322C80.186 15.0322 80.5044 15.3351 80.5044 15.7318C80.5044 16.1836 80.1754 16.4314 79.529 16.4314H78.7323V17.2599H79.5432C80.3 17.2599 80.6925 17.5084 80.6925 18.0293C80.6925 18.5156 80.2553 18.8285 79.5432 18.8285C78.9168 18.8285 78.469 18.5801 78.3645 18.1037Z" fill="white"/>
<path d="M83.2984 14.2336V19.6371L84.3584 19.6371L86.8603 15.9006H86.9402V19.6371H88.0002V14.2336H86.9402L84.443 17.9502H84.3584V14.2336H83.2984Z" fill="white"/>
<path d="M92.1332 15.1312H93.8396V14.2336H89.3563V15.1312H91.0627V19.6371H92.1332V15.1312Z" fill="white"/>
<path fill-rule="evenodd" clip-rule="evenodd" d="M98.7101 19.3847C99.1395 19.099 99.4546 18.6719 99.6003 18.1781L98.5697 18.178C98.4443 18.4023 98.2549 18.5843 98.0256 18.701C97.7962 18.8176 97.5373 18.8636 97.2817 18.8331C97.0821 18.8355 96.8842 18.7963 96.7007 18.7179C96.5172 18.6395 96.3522 18.5236 96.2163 18.3778C96.0804 18.232 95.9766 18.0595 95.9115 17.8713C95.8465 17.6831 95.8216 17.4835 95.8386 17.2851V17.2254H99.6649V16.8532C99.6649 15.1564 98.7542 14.1292 97.2464 14.1292C96.8884 14.1262 96.5339 14.1999 96.2069 14.3454C95.88 14.4908 95.5882 14.7046 95.3512 14.9723C95.1143 15.24 94.9379 15.5553 94.8338 15.8969C94.7297 16.2385 94.7005 16.5984 94.748 16.9523C94.6992 17.3051 94.7279 17.6642 94.8323 18.0048C94.9366 18.3454 95.114 18.6593 95.3521 18.9246C95.5903 19.19 95.8835 19.4005 96.2114 19.5415C96.5394 19.6826 96.8941 19.7508 97.2511 19.7414C97.7643 19.7967 98.2807 19.6705 98.7101 19.3847ZM98.5743 16.4367H95.8385C95.836 16.2522 95.8705 16.0691 95.9401 15.8981C96.0097 15.7271 96.1129 15.5718 96.2437 15.4413C96.3745 15.3108 96.5302 15.2078 96.7016 15.1383C96.873 15.0689 97.0567 15.0344 97.2417 15.0369C97.4239 15.0328 97.605 15.0668 97.7732 15.1367C97.9415 15.2066 98.0933 15.3108 98.2188 15.4426C98.3443 15.5744 98.4407 15.7309 98.5019 15.9021C98.5632 16.0733 98.5878 16.2554 98.5743 16.4367Z" fill="white"/>
<path fill-rule="evenodd" clip-rule="evenodd" d="M106.577 14.2336H104.134V19.637H106.602C107.791 19.637 108.502 19.0218 108.502 18.079C108.506 17.7629 108.388 17.4573 108.172 17.2255C107.957 16.9936 107.66 16.8533 107.343 16.8333V16.749C107.604 16.6921 107.837 16.5477 108.004 16.3399C108.17 16.1321 108.261 15.8736 108.259 15.6076C108.259 14.7691 107.637 14.2336 106.577 14.2336ZM105.194 16.4513V15.0521L106.373 15.0521C106.94 15.0521 107.209 15.3251 107.209 15.7464C107.209 16.2035 106.9 16.4513 106.254 16.4513H105.194ZM105.194 18.8185V17.2353L106.328 17.2353C107.05 17.2353 107.433 17.4885 107.433 18.0293C107.433 18.5402 107.094 18.8185 106.462 18.8185H105.194Z" fill="white"/>
<rect x="1" y="1" width="154" height="54" rx="7" stroke="white" stroke-opacity="0.3" stroke-width="2"/>
</svg>

<svg width="156" height="56" viewBox="0 0 156 56" fill="none" xmlns="http://www.w3.org/2000/svg"><path d="M32.582 25.506a5.927 5.927 0 00-.776 2.855 5.727 5.727 0 00.96 3.166 5.75 5.75 0 002.553 2.113 13.14 13.14 0 01-1.827 3.71c-1.076 1.606-2.205 3.175-3.996 3.204-.852.02-1.427-.225-2.026-.48-.625-.265-1.276-.542-2.295-.542-1.081 0-1.762.286-2.418.561-.567.238-1.116.469-1.89.5-1.705.064-3.009-1.713-4.124-3.303-2.23-3.248-3.966-9.153-1.638-13.172a6.386 6.386 0 012.258-2.344 6.41 6.41 0 013.124-.93c.968-.019 1.896.353 2.71.679.622.25 1.178.472 1.633.472.4 0 .94-.214 1.569-.463.991-.392 2.204-.872 3.44-.743a6.11 6.11 0 014.803 2.59 5.945 5.945 0 00-2.06 2.127zM29.86 14.464a5.836 5.836 0 01-1.341 4.189 4.932 4.932 0 01-3.895 1.836A5.548 5.548 0 0126 16.456a5.971 5.971 0 013.86-1.992z" fill="#fff"/><path fill-rule="evenodd" clip-rule="evenodd" d="M55.905 36.567H50.21l-1.368 4.028H46.43l5.395-14.901h2.507l5.395 14.901h-2.454l-1.367-4.028zM50.8 34.71h4.515l-2.225-6.537h-.063L50.8 34.709zm20.578.453c0 3.377-1.813 5.546-4.547 5.546a3.702 3.702 0 01-3.428-1.901h-.052v5.381h-2.236V29.731h2.164v1.807h.042a3.859 3.859 0 013.469-1.921c2.765 0 4.588 2.18 4.588 5.546zm-2.3 0c0-2.2-1.139-3.645-2.878-3.645-1.709 0-2.858 1.476-2.858 3.645 0 2.19 1.15 3.656 2.858 3.656 1.739 0 2.879-1.436 2.879-3.656zm14.291 0c0 3.377-1.812 5.546-4.547 5.546a3.702 3.702 0 01-3.428-1.901h-.052v5.381h-2.236V29.731h2.165v1.807h.041a3.859 3.859 0 013.47-1.921c2.764 0 4.587 2.18 4.587 5.546zm-2.299 0c0-2.2-1.14-3.645-2.879-3.645-1.709 0-2.858 1.476-2.858 3.645 0 2.19 1.15 3.656 2.858 3.656 1.74 0 2.88-1.436 2.88-3.656z" fill="#fff"/><path d="M91.294 36.443c.166 1.478 1.606 2.448 3.573 2.448 1.885 0 3.24-.97 3.24-2.303 0-1.156-.817-1.849-2.754-2.323l-1.936-.466c-2.744-.66-4.018-1.94-4.018-4.017 0-2.571 2.247-4.337 5.437-4.337 3.158 0 5.323 1.766 5.395 4.337h-2.257c-.135-1.487-1.368-2.385-3.17-2.385-1.801 0-3.034.909-3.034 2.23 0 1.054.788 1.674 2.714 2.149l1.646.403c3.066.723 4.34 1.95 4.34 4.13 0 2.788-2.227 4.534-5.769 4.534-3.314 0-5.551-1.705-5.696-4.4h2.29zm14.002-9.283v2.57h2.072v1.767h-2.072v5.99c0 .93.415 1.363 1.326 1.363.246-.004.491-.021.736-.051v1.755c-.41.076-.826.11-1.243.103-2.205 0-3.066-.826-3.066-2.933v-6.227h-1.584V29.73h1.584v-2.572h2.247z" fill="#fff"/><path fill-rule="evenodd" clip-rule="evenodd" d="M108.568 35.163c0-3.418 2.019-5.566 5.167-5.566 3.159 0 5.169 2.148 5.169 5.566 0 3.428-1.999 5.567-5.169 5.567-3.168 0-5.167-2.139-5.167-5.567zm8.057 0c0-2.344-1.078-3.728-2.89-3.728s-2.888 1.394-2.888 3.728c0 2.355 1.076 3.728 2.888 3.728 1.812 0 2.89-1.373 2.89-3.728z" fill="#fff"/><path d="M120.747 29.73h2.133v1.85h.052a2.603 2.603 0 012.621-1.963 3.47 3.47 0 01.766.083v2.086a3.133 3.133 0 00-1.005-.135 2.255 2.255 0 00-2.232 1.543 2.247 2.247 0 00-.098.957v6.444h-2.237V29.731z" fill="#fff"/><path fill-rule="evenodd" clip-rule="evenodd" d="M136.63 37.404c-.301 1.972-2.227 3.326-4.692 3.326-3.169 0-5.136-2.118-5.136-5.515 0-3.408 1.978-5.618 5.042-5.618 3.015 0 4.91 2.065 4.91 5.359v.764h-7.695v.135a2.824 2.824 0 00.769 2.198 2.85 2.85 0 002.162.88 2.469 2.469 0 002.516-1.529h2.124zm-7.56-3.243h5.447a2.608 2.608 0 00-.732-1.96 2.622 2.622 0 00-1.941-.797 2.764 2.764 0 00-2.565 1.699c-.139.336-.21.695-.209 1.058z" fill="#fff"/><path d="M50.17 15.504h-.96v.972h.99c1 0 1.573.437 1.573 1.147 0 .7-.608 1.196-1.538 1.196-.931 0-1.562-.442-1.627-1.127h-1.07a2.375 2.375 0 00.897 1.63 2.389 2.389 0 001.8.489 2.403 2.403 0 002.4-1.226c.153-.28.249-.587.281-.903.018-.44-.14-.87-.44-1.195a1.674 1.674 0 00-1.157-.537v-.084a1.668 1.668 0 001.305-1.638c0-1.136-.996-1.925-2.41-1.925a2.257 2.257 0 00-2.297 1.211c-.14.275-.221.575-.24.883h1.054a1.273 1.273 0 01.943-1.09c.165-.045.337-.055.507-.031.844 0 1.343.426 1.343 1.087a1.201 1.201 0 01-.861 1.1c-.16.048-.328.061-.493.04z" fill="#fff"/><path fill-rule="evenodd" clip-rule="evenodd" d="M56.148 16.496c-1.288.08-2.015.64-2.015 1.613a1.628 1.628 0 001.13 1.546c.218.07.448.095.676.071a1.826 1.826 0 001.627-.848h.085v.76h1.03v-3.693c0-1.141-.766-1.816-2.124-1.816-1.23 0-2.106.596-2.215 1.524h1.035c.12-.382.532-.6 1.13-.6.732 0 1.109.321 1.109.892v.466l-1.468.085zm1.468.7v.451a1.271 1.271 0 01-.897 1.131c-.164.05-.336.068-.506.05-.582 0-1.005-.282-1.005-.769 0-.476.338-.73 1.084-.78l1.324-.084z" fill="#fff"/><path d="M61.52 19.637v-4.506h2.498v-.897H60.45v5.403h1.07z" fill="#fff"/><path fill-rule="evenodd" clip-rule="evenodd" d="M68.26 19.726c1.368 0 2.24-1.076 2.24-2.793s-.872-2.79-2.25-2.79a1.887 1.887 0 00-1.702.984h-.08v-.893h-1.03v7.2h1.07v-2.616h.085a1.764 1.764 0 001.667.908zm-.309-4.624c.906 0 1.448.69 1.448 1.831 0 1.146-.542 1.836-1.452 1.836-.896 0-1.459-.705-1.459-1.831 0-1.132.563-1.836 1.463-1.836z" fill="#fff"/><path d="M71.923 20.654v.918c.1.015.354.025.443.025 1.105 0 1.618-.422 2.08-1.737l2.02-5.626h-1.133l-1.354 4.292h-.085l-1.358-4.292H71.37l1.961 5.423-.08.263a.924.924 0 01-.98.754 2.544 2.544 0 01-.349-.02zm6.442-2.55H77.3c.099 1.091 1.06 1.632 2.243 1.632 1.339 0 2.215-.68 2.215-1.707a1.21 1.21 0 00-1.06-1.215v-.085a1.114 1.114 0 00.856-1.106c0-.913-.737-1.494-2.025-1.494a1.903 1.903 0 00-1.392.356c-.4.296-.666.737-.743 1.227h1.03c.07-.427.507-.68 1.105-.68.657 0 .975.303.975.7 0 .452-.329.7-.975.7h-.797v.828h.811c.757 0 1.15.248 1.15.77 0 .486-.438.798-1.15.798-.626 0-1.074-.248-1.178-.724zm4.933-3.87v5.403h1.06l2.502-3.736h.08v3.736H88v-5.403h-1.06l-2.497 3.716h-.085v-3.716h-1.06zm8.835.897h1.707v-.897h-4.484v.897h1.707v4.506h1.07v-4.506z" fill="#fff"/><path fill-rule="evenodd" clip-rule="evenodd" d="M98.71 19.385a2.19 2.19 0 00.89-1.207h-1.03a1.297 1.297 0 01-1.288.655 1.435 1.435 0 01-1.37-.962 1.423 1.423 0 01-.073-.586v-.06h3.826v-.372c0-1.697-.91-2.724-2.419-2.724a2.505 2.505 0 00-1.895.843 2.49 2.49 0 00-.603 1.98 2.447 2.447 0 00.604 1.973 2.46 2.46 0 001.9.816 2.2 2.2 0 001.458-.356zm-.136-2.948h-2.736a1.379 1.379 0 011.404-1.4 1.309 1.309 0 011.332 1.4zm8.003-2.203h-2.443v5.403h2.468c1.189 0 1.9-.615 1.9-1.558a1.236 1.236 0 00-1.159-1.246v-.084a1.166 1.166 0 00.916-1.141c0-.839-.622-1.374-1.682-1.374zm-1.383 2.217v-1.399h1.179c.567 0 .836.273.836.694 0 .457-.309.705-.955.705h-1.06zm0 2.367v-1.583h1.134c.722 0 1.105.253 1.105.794 0 .511-.339.79-.971.79h-1.268z" fill="#fff"/><rect x="1" y="1" width="154" height="54" rx="7" stroke="#fff" stroke-opacity=".3" stroke-width="2"/></svg>
